svg/section-markets.svg

<svg xmlns="http://www.w3.org/2000/svg" width="100" height="100" viewBox="0 0 100 100"><path d="M2.5 90.088h96v4.527h-96v-4.527zm.354-77.137v-5.548h4.528v5.548h-4.528zm0 11.806v-5.548h4.528v5.548h-4.528zm0 11.85v-5.548h4.528v5.548h-4.528zm0 11.806v-5.415h4.528v5.415h-4.528zm0 11.939v-5.549h4.528v5.549h-4.528zm0 11.805v-5.503h4.528v5.503h-4.528zm0 6.303h4.528v5.548h-4.528v-5.548zm14.203 4.35v-26.275h22.546v26.275h-22.546zm27.384 0v-49.354h22.324v49.354h-22.324zm27.295 0v-78.426h22.413v78.426h-22.413z"/></svg>

<?xml version="1.0" encoding="utf-8"?>
<!-- Generator: Adobe Illustrator 13.0.0, SVG Export Plug-In . SVG Version: 6.00 Build 14948)  -->
<!DOCTYPE svg PUBLIC "-//W3C//DTD SVG 1.1//EN" "http://www.w3.org/Graphics/SVG/1.1/DTD/svg11.dtd">
<svg version="1.1" id="Layer_1" xmlns="http://www.w3.org/2000/svg" xmlns:xlink="http://www.w3.org/1999/xlink" x="0px" y="0px"
	 width="100px" height="100px" viewBox="0 0 100 100" enable-background="new 0 0 100 100" xml:space="preserve">
<g>
	<path d="M2.5,90.088h96v4.527h-96V90.088z M2.854,12.951V7.403h4.528v5.548H2.854z M2.854,24.757v-5.548h4.528v5.548H2.854z
		 M2.854,36.607v-5.548h4.528v5.548H2.854z M2.854,48.413v-5.415h4.528v5.415H2.854z M2.854,60.352v-5.549h4.528v5.549H2.854z
		 M2.854,72.157v-5.503h4.528v5.503H2.854z M2.854,78.46h4.528v5.548H2.854V78.46z M17.057,82.81V56.535h22.546V82.81H17.057z
		 M44.441,82.81V33.456h22.324V82.81H44.441z M71.736,82.81V4.384h22.413V82.81H71.736z"/>
</g>
</svg>
